src/assets/payments/sber-pay-icon.svg

<svg width="96" height="45" viewBox="0 0 96 45" fill="none" xmlns="http://www.w3.org/2000/svg">
<g clip-path="url(#clip0_3205_37237)">
<path d="M23.3301 44.73H72.5419C78.543 44.73 84.2983 42.3738 88.5417 38.1795C92.7851 33.9852 95.1689 28.2966 95.1689 22.365C95.1689 16.4334 92.7851 10.7448 88.5417 6.55056C84.2983 2.35631 78.543 0 72.5419 0H23.3301C17.3291 0 11.5738 2.35631 7.33042 6.55056C3.08703 10.7448 0.703125 16.4334 0.703125 22.365C0.703125 28.2966 3.08703 33.9852 7.33042 38.1795C11.5738 42.3738 17.3291 44.73 23.3301 44.73Z" fill="url(#paint0_linear_3205_37237)"/>
<path d="M46.4973 24.5309V29.2169H43.7656V14.1719H48.8343C53.6389 14.1719 55.6816 15.8699 55.6816 19.2719C55.6816 22.7759 53.2899 24.5369 48.8343 24.5369L46.4973 24.5309ZM46.4973 16.6439V22.0589H49.0407C51.5629 22.0589 52.868 21.2429 52.868 19.1999C52.868 17.3519 51.7359 16.6439 49.0832 16.6439H46.4973Z" fill="white"/>
<path d="M57.129 19.2239C57.8453 18.6839 59.1504 18.2549 61.0231 18.2549C64.1979 18.2549 65.764 19.3289 65.764 22.1249V29.2169H63.3693V27.2819C62.8472 28.5299 61.5209 29.3819 59.7817 29.3819C57.5873 29.3819 56.2822 28.1549 56.2822 26.0489C56.2822 23.5979 58.0851 22.9109 60.7621 22.9109H63.2266V22.4459C63.2266 20.9219 62.4891 20.4479 61.0322 20.4479C59.029 20.4479 57.8787 21.2219 57.1381 22.3619L57.129 19.2239ZM63.2266 25.4339V24.5519H61.0747C59.5723 24.5519 58.856 24.8339 58.856 25.7999C58.856 26.6159 59.4631 27.1319 60.5952 27.1319C62.3161 27.1319 63.1083 26.1659 63.2266 25.4339Z" fill="white"/>
<path d="M67.0234 18.4712H69.8704L72.8509 25.8422L75.279 18.4712H77.9773L73.634 30.3572C72.6779 32.9372 71.6976 33.5162 70.2619 33.5162C69.5881 33.5162 68.8506 33.3242 68.5228 33.0452V30.7022C68.8734 31.0382 69.3399 31.2302 69.8279 31.2392C70.611 31.2392 71.1968 30.7232 71.6126 29.2622L67.0234 18.4712Z" fill="white"/>
<path d="M18.8867 19.233V22.533L23.315 25.278L33.9107 17.5589C33.5386 16.7456 33.0712 15.9783 32.5175 15.2729L23.315 21.978L18.8867 19.233Z" fill="white"/>
<path d="M32.2681 22.0651C32.2681 22.1431 32.2681 22.2211 32.2681 22.3021C32.2699 24.2774 31.6028 26.1965 30.373 27.7535C29.1432 29.3104 27.4214 30.4156 25.4821 30.8929C23.5429 31.3699 21.4978 31.1917 19.673 30.3865C17.8481 29.5813 16.3485 28.1954 15.4132 26.4498C14.4779 24.7042 14.1608 22.6993 14.5124 20.7548C14.864 18.8103 15.8641 17.0382 17.3532 15.7208C18.8423 14.4035 20.7347 13.6168 22.7288 13.4861C24.7229 13.3555 26.7038 13.8885 28.3558 15.0001L30.617 13.3531C28.5645 11.7155 26.0098 10.816 23.372 10.8024C20.7343 10.7888 18.1702 11.6618 16.1006 13.2783C14.0309 14.8947 12.5787 17.1585 11.9821 19.6981C11.3855 22.2378 11.68 24.9025 12.8173 27.2549C13.9546 29.6074 15.8672 31.5079 18.2411 32.6443C20.6151 33.781 23.3094 34.0861 25.8819 33.5098C28.4545 32.9338 30.7523 31.5103 32.3986 29.4732C34.0449 27.4361 34.9417 24.9064 34.942 22.2991C34.9423 21.6081 34.8804 20.9183 34.7569 20.2381L32.2681 22.0651Z" fill="white"/>
</g>
<defs>
<linearGradient id="paint0_linear_3205_37237" x1="119.984" y1="-6.3" x2="28.6235" y2="97.0353" gradientUnits="userSpaceOnUse">
<stop offset="0.0677083" stop-color="#00ADED"/>
<stop offset="0.302083" stop-color="#42E3B4"/>
<stop offset="0.56543" stop-color="#00D900"/>
<stop offset="0.854167" stop-color="#FAED00"/>
</linearGradient>
<clipPath id="clip0_3205_37237">
<rect width="95" height="45" fill="white" transform="translate(0.399414)"/>
</clipPath>
</defs>
</svg>

<svg xmlns="http://www.w3.org/2000/svg" width="96" height="45" fill="none" viewBox="0 0 96 45">
    <g clip-path="url(#a)">
        <path fill="url(#b)" d="M23.33 44.73h49.212a22.762 22.762 0 0 0 16-6.55 22.235 22.235 0 0 0 6.627-15.815c0-5.932-2.384-11.62-6.627-15.814a22.762 22.762 0 0 0-16-6.551H23.33a22.762 22.762 0 0 0-16 6.55A22.234 22.234 0 0 0 .703 22.366c0 5.932 2.384 11.62 6.627 15.814a22.762 22.762 0 0 0 16 6.551Z"/>
        <path fill="#fff" d="M46.497 24.53v4.687h-2.731V14.172h5.068c4.805 0 6.848 1.698 6.848 5.1 0 3.504-2.392 5.265-6.848 5.265l-2.337-.006Zm0-7.886v5.415h2.544c2.522 0 3.827-.816 3.827-2.86 0-1.847-1.132-2.555-3.785-2.555h-2.586ZM57.129 19.224c.716-.54 2.021-.97 3.894-.97 3.175 0 4.741 1.075 4.741 3.87v7.093h-2.395v-1.935c-.522 1.248-1.848 2.1-3.587 2.1-2.195 0-3.5-1.227-3.5-3.333 0-2.451 1.803-3.138 4.48-3.138h2.465v-.465c0-1.524-.738-1.998-2.195-1.998-2.003 0-3.153.774-3.894 1.914l-.009-3.138Zm6.098 6.21v-.882h-2.152c-1.503 0-2.219.282-2.219 1.248 0 .816.607 1.332 1.74 1.332 1.72 0 2.512-.966 2.63-1.698ZM67.023 18.471h2.847l2.98 7.371 2.429-7.37h2.698l-4.343 11.885c-.956 2.58-1.936 3.16-3.372 3.16-.674 0-1.411-.193-1.74-.472v-2.343c.351.336.818.528 1.306.537.783 0 1.369-.516 1.785-1.977l-4.59-10.79ZM18.887 19.233v3.3l4.428 2.745 10.596-7.72a11.35 11.35 0 0 0-1.394-2.285l-9.202 6.705-4.428-2.745Z"/>
        <path fill="#fff" d="M32.268 22.065v.237a8.78 8.78 0 0 1-1.895 5.451 8.958 8.958 0 0 1-4.89 3.14 9.046 9.046 0 0 1-5.81-.506 8.906 8.906 0 0 1-4.26-3.937 8.754 8.754 0 0 1-.9-5.695 8.818 8.818 0 0 1 2.84-5.034A9.026 9.026 0 0 1 28.356 15l2.261-1.648a11.716 11.716 0 0 0-7.245-2.55 11.717 11.717 0 0 0-7.271 2.475 11.481 11.481 0 0 0-4.119 6.42 11.375 11.375 0 0 0 .835 7.557 11.562 11.562 0 0 0 5.424 5.39 11.753 11.753 0 0 0 7.64.865c2.573-.576 4.871-2 6.518-4.037a11.413 11.413 0 0 0 2.358-9.235l-2.489 1.827Z"/>
    </g>
    <defs>
        <linearGradient id="b" x1="119.984" x2="28.623" y1="-6.3" y2="97.035" gradientUnits="userSpaceOnUse">
            <stop offset=".068" stop-color="#00ADED"/>
            <stop offset=".302" stop-color="#42E3B4"/>
            <stop offset=".565" stop-color="#00D900"/>
            <stop offset=".854" stop-color="#FAED00"/>
        </linearGradient>
        <clipPath id="a">
            <path fill="#fff" d="M.4 0h95v45H.4z"/>
        </clipPath>
    </defs>
</svg>
